X:268
%%etbk:tnset id:81,pos:1,rep:3x,ant:
%%etbk:wsite http://www.thesession.org/tunes/display/11901
%%etbk:pldat 2015-05-05T15:40,2014-04-30T15:41,2014-04-26T16:36,2014-03-09T15:23,2014-02-14T16:27,2014-02-11T16:24,2013-10-04T15:27,2013-05-12T18:30
T: Humours of Ballinamult, The
Z: Piano Box Version by Martin Fleischmann
H: Created 2013-02-19 /  Last Modified 2013-02-19
B: "O'Farrell's Pocket Companion, vol. 1", 1805, page 54
M: 6/8
L: 1/8
R: jig
K: Edor
 |:!5!B3 !1!E !3!(3E!2!E!1!E | !5!B!4!A!3!G !2!F!1!E!1!D | !5![B3E] !1!E !3!(3E!2!E!1!E | !2!B!2!B!2!B dBA |
B3 !1!E !3!(3E!2!E!1!E | BAG FED | A2 D !2!F!2!F!2!F |1 A2A AGA :|2 A2A AGF ||
|: !1!E !3!(3E!2!E!1!E !2!E2 !3!F | !1!D !3!(3D!2!D!1!D !1!D2 !3!F | !1!E !3!(3E!2!E!1!E E2 !2!B | B2B !2!B!1!A!2!F |
!1!E !3!(3E!2!E!1!E E2 F | !1!D !3!(3D!2!D!1!D !1!D!2!F!3!G | !4!A2 D !2!FFF |1 !4!A2A AGF :|2 A2A AGA ||
|: !5!B2 !2!c !3!d2 !4!e | !5!f!3!d!2!B !1!A!3!G!2!F | !5!B2 !2!c !3!d2 !4!e | !5!f2 !4!e !5!f!3!d!2!B |
!1!B2 !2!c !3!d2 !4!e | !5!fdB AGF | !1!D !3!(3D!2!D!1!D !2!F!2!F!2!F | !4!A2A AGA :|


